X: 27592
T: Monument, The
R: jig
M: 6/8
K: Dmixolydian
G|ADD EFG|AdB cde|fga ged|cAG EFG|
ADD EFG|AdB cde|fed cAG|EDD D2 G|
ADD EFG|AdB cde|~f4 ed|cAG EFG|
ADD EFG|AdB cde|fed cAG|EDD D2 A|
d2d d^cd|aaa afd|c2c cdf|agf g2f|
a2b agf|g2a gfe|fed cAG|EDD D2 A|
d2d d^cd|aaa afd|c2c cdf|agf g2f|
aaa ggg|fff eee|fed cAG|EDD D3|

